;FLAVOR:Marlin
;TIME:1737
;Filament used: 1.11357m
;Layer height: 0.282843
;MINX:77.2
;MINY:0.2
;MINZ:0.4
;MAXX:124.1
;MAXY:31.584
;MAXZ:35.775
;Setting summary:
;  CATEGORY: Crealitybelt
;    Print Raft: True
;    Raft Extra Margin: 4
;    Belt Wall Speed: 10
;    Enable Secondary Print Fans: True
;    Secondary Print Fan Speed: 100
;  CATEGORY: Machine
;    Material GUID: 3ed31896-4698-404e-9960-8daebc05885a
;    Diameter: 1.75
;    Nozzle Diameter: 0.4
;    Gantry Angle: 45
;  CATEGORY: Quality
;    Layer Height: 0.2
;  CATEGORY: Shell
;    Top/Bottom Pattern: zigzag
;    Seam Corner Preference: z_seam_corner_weighted
;  CATEGORY: Infill
;    Infill Density: 50
;    Infill Pattern: gyroid
;  CATEGORY: Material
;    Default Printing Temperature: 200
;    Printing Temperature: 210
;    Default Build Plate Temperature: 60
;    Build Plate Temperature: 72
;    Flow: 100
;    Standby Temperature: 50
;  CATEGORY: Speed
;  CATEGORY: Travel
;    Retraction Distance: 9
;    Retraction Speed: 70
;  CATEGORY: Cooling
;    Fan Speed: 100
;  CATEGORY: Support
;    Support Pattern: grid
;    Support Density: 5
;  CATEGORY: Build Plate Adhesion
;  CATEGORY: Dual Extrusion
;  CATEGORY: Mesh Fixes
;  CATEGORY: Special Modes
;  CATEGORY: Experimental
;    Enable Coasting: True
;  CATEGORY: Command Line Settings
;  Copies: 1
;BLACKBELTPROCESSED
;Generated with Creality Slicer 4.8.2-291
M140 S72
M105
M190 S72
M104 S210
M105
M109 S210
M82 ;absolute extrusion mode
G90               ; Set to Absolute Positioning
M82               ; Set extruder to absolute mode
G21               ; Metric values
G28 X Y
G92 Z0 E0   ; Set all axis to 0
;home X
G1 Y2             ; Move Y axis off the bed
G28 X0 F2000      ; Home X axis
G1 X200 Z5 F4000  ; Move X to the center
;probe Y
M908 P5 S10       ; Setting the motor current of the Y1 motor off
M908 P1 S10       ; Setting the motor current of the Y2 motor off
G1 Y20 G3000      ; Move Y up
M400              ; Wait for current moves to finish
M908 P5 S25       ; Setting the motor current of the Y1 motor very low
M908 P1 S25       ; Setting the motor current of the Y2 motor off
G1 Y0 F500        ; Move Y down into the belt
M400              ; Wait for current moves to finish
M908 P5 S140      ; Setting the motor current of the Y1 motor to normal
M908 P1 S140      ; Setting the motor current of the Y2 motor to normal
G92 Y0.2
;purge
G1 Y2             ; Move Y axis off the bed
G1 F15000         ; Set high feedrate
G1 X200 Y 1 G1 E10; Extruder 10mm material and move to the side
G1 Z10 E12 F500;add
G1 X0 E32
G1 Z20 E34
G1 X200 E54

G1 Z30 E56 F500
G1 X0 E76
G1 Z40 E78
G1 X200 E98

G1 X0 Z40.2 E120
G92 E0 Z0   
G1 E-4 F3900      ; Retract 4mm at 65mm/s
G92 E0
G92 E0
G1 F4200 E-9
;LAYER_COUNT:126
;LAYER:0
M107
;MESH:raftMesh0x19a278bbf98
G0 F7200 X87.746 Y0.2 Z0.4
;TYPE:WALL-OUTER
G1 F4200 E0
G1 F180 X87.898 Y0.2 E0.00715
G1 X88.286 Y0.2 E0.0254
G1 X117.368 Y0.2 E1.39333
G1 X117.369 Y0.2 E1.39338
G1 X117.637 Y0.2 E1.40598
G1 X117.559 Y0.457 E1.41353
G1 X117.447 Y0.825 E1.43163
G1 X117.372 Y0.933 E1.43781
G1 X88.68 Y0.933 E2.7874
G1 X88.206 Y0.573 E2.81539
G1 X87.898 Y0.338 E2.82796
G1 X87.746 Y0.2 E2.83112
G0 F7200 X87.898 Y0.2
G0 X87.946 Y0.2
G1 F4200 E-6.16888
;MESH:NONMESH
G0 F600 X87.946 Y0.2 Z0.683
G0 F7200 X87.21 Y0.2
;TIME_ELAPSED:23.390930
;LAYER:1
M106 P1 S42
M106 S42.5
;TYPE:WALL-OUTER
;MESH:raftMesh0x19a278bbf98
G1 F4200 E2.83112
G1 F405 X87.729 Y0.2 E2.8484
G1 X87.73 Y0.2 E2.84843
G1 X117.515 Y0.2 E3.83963
G1 X117.516 Y0.2 E3.83967
G1 X117.784 Y0.2 E3.84858
G1 X117.706 Y0.457 E3.85393
G1 X117.562 Y0.933 E3.87048
G1 X88.046 Y0.933 E4.85273
G1 X87.898 Y0.821 E4.85891
G1 X87.596 Y0.548 E4.87245
G1 X87.21 Y0.2 E4.88168
G0 F7650 X87.41 Y0.2
G1 F4200 E-4.11832
;MESH:NONMESH
G0 F600 X87.41 Y0.2 Z0.966
G0 F7650 X86.77 Y0.2
;TIME_ELAPSED:33.002979
;LAYER:2
M106 P1 S85
M106 S85
;TYPE:WALL-OUTER
;MESH:raftMesh0x19a278bbf98
G1 F4200 E4.88168
G1 F600 X86.806 Y0.2 E4.88288
G1 X87.279 Y0.2 E4.89862
G1 X117.636 Y0.2 E5.90886
G1 X117.637 Y0.2 E5.90889
G1 X117.905 Y0.2 E5.91781
G1 X117.827 Y0.457 E5.92315
G1 X117.683 Y0.933 E5.9397
G1 X87.579 Y0.933 E6.94152
G1 X87.157 Y0.553 E6.96042
G1 X86.806 Y0.236 E6.96947
G1 X86.77 Y0.2 E6.96987
G0 F8100 X86.806 Y0.2
G0 X86.97 Y0.2
G1 F4200 E-2.03013
;MESH:NONMESH
G0 F600 X86.97 Y0.2 Z1.249
G0 F8100 X86.373 Y0.2
;TIME_ELAPSED:39.741497
;LAYER:3
M106 P1 S127
M106 S127.5
;TYPE:WALL-OUTER
;MESH:raftMesh0x19a278bbf98
G1 F4200 E6.96987
G1 F600 X86.518 Y0.2 E6.97469
G1 X86.819 Y0.2 E6.98471
G1 X117.758 Y0.2 E8.01432
G1 X117.759 Y0.2 E8.01435
G1 X118.027 Y0.2 E8.02327
G1 X117.949 Y0.457 E8.02861
G1 X117.805 Y0.933 E8.04516
G1 X87.135 Y0.933 E9.06582
G1 X86.739 Y0.569 E9.08372
G1 X86.518 Y0.365 E9.09098
G1 X86.373 Y0.2 E9.09388
G0 F8550 X86.518 Y0.2
G0 X86.573 Y0.2
G1 F4200 E0.09388
;MESH:NONMESH
G0 F600 X86.573 Y0.2 Z1.532
G0 F8550 X86.019 Y0.2
;TIME_ELAPSED:46.582685
;LAYER:4
M106 P1 S170
M106 S170
;TYPE:WALL-OUTER
;MESH:raftMesh0x19a278bbf98
G1 F4200 E9.09388
G1 F600 X86.46 Y0.2 E9.10856
G1 X86.461 Y0.2 E9.10859
G1 X117.88 Y0.2 E10.15417
G1 X117.881 Y0.2 E10.15421
G1 X118.149 Y0.2 E10.16312
G1 X118.071 Y0.457 E10.16847
G1 X117.927 Y0.933 E10.18502
G1 X86.696 Y0.933 E11.22434
G1 X86.513 Y0.761 E11.2327
G1 X86.311 Y0.531 E11.24289
G1 X86.019 Y0.2 E11.25088
G0 F9000 X86.219 Y0.2
G1 F4200 E2.25088
;MESH:NONMESH
G0 F600 X86.219 Y0.2 Z1.815
G0 F9000 X85.664 Y0.2
;TIME_ELAPSED:53.521026
;LAYER:5
M106 P1 S212
M106 S212.5
;TYPE:WALL-OUTER
;MESH:raftMesh0x19a278bbf98
G1 F4200 E11.25088
G1 F600 X86.106 Y0.2 E11.26559
G1 X86.107 Y0.2 E11.26562
G1 X118.001 Y0.2 E12.32701
G1 X118.002 Y0.2 E12.32705
G1 X118.27 Y0.2 E12.33597
G1 X118.192 Y0.457 E12.34131
G1 X118.048 Y0.933 E12.35786
G1 X86.312 Y0.933 E13.41399
G1 X85.957 Y0.532 E13.43181
G1 X85.664 Y0.2 E13.43983
G0 F9000 X85.864 Y0.2
G1 F4200 E4.43983
;MESH:Top Left Lid.stl
G0 F9000 X98.774 Y2.04
;TYPE:WALL-OUTER
G1 F4200 E13.43983
G1 F1000 X99.127 Y2.04 E13.45158
G1 X99.748 Y2.04 E13.47224
G1 X100.386 Y2.04 E13.49348
G1 X101.006 Y2.04 E13.51411
G1 X101.644 Y2.04 E13.53534
G1 X102.264 Y2.04 E13.55597
G1 X102.518 Y2.04 E13.56443
G1 X102.264 Y2.076 E13.56486
G1 X101.644 Y2.133 E13.56824
G1 X101.006 Y2.165 E13.57403
G1 X100.386 Y2.167 E13.58053
G1 X99.748 Y2.14 E13.58656
G1 X99.127 Y2.088 E13.59044
G1 X98.774 Y2.04 E13.59123
G0 F9000 X98.974 Y2.04
G1 F4200 E4.59123
;MESH:NONMESH
G0 F600 X98.974 Y2.04 Z2.098
G0 F9000 X85.312 Y0.2
;TIME_ELAPSED:61.718431
;LAYER:6
M106 P1 S255
M106 S255
;TYPE:WALL-OUTER
;MESH:raftMesh0x19a278bbf98
G1 F4200 E13.59123
G1 F600 X85.753 Y0.2 E13.60591
G1 X85.754 Y0.2 E13.60594
G1 X118.123 Y0.2 E14.68314
G1 X118.124 Y0.2 E14.68317
G1 X118.392 Y0.2 E14.69209
G1 X118.314 Y0.457 E14.69743
G1 X118.17 Y0.933 E14.71398
G1 X85.958 Y0.933 E15.78595
G1 X85.604 Y0.531 E15.80378
G1 X85.312 Y0.2 E15.81177
G0 F9000 X85.512 Y0.2
G1 F4200 E6.81177
;MESH:Top Left Lid.stl
G0 F9000 X96.848 Y2.04
;TYPE:WALL-OUTER
G1 F4200 E15.81177
G1 F1000 X97.254 Y2.04 E15.82528
G1 X97.874 Y2.04 E15.84592
G1 X98.51 Y2.04 E15.86708
G1 X98.78 Y2.04 E15.87607
G1 X102.516 Y2.04 E16.0004
G1 X102.892 Y2.04 E16.01291
G1 X103.522 Y2.04 E16.03387
G1 X104.131 Y2.04 E16.05414
G1 X104.449 Y2.04 E16.06472
G1 X104.131 Y2.128 E16.06617
G1 X103.522 Y2.269 E16.07465
G1 X102.892 Y2.387 E16.09008
G1 X102.52 Y2.439 E16.10175
G1 X102.27 Y2.475 E16.11016
G1 X101.65 Y2.533 E16.13088
G1 X101.013 Y2.565 E16.15211
G1 X100.393 Y2.567 E16.17274
G1 X99.756 Y2.541 E16.19396
G1 X99.132 Y2.487 E16.2148
G1 X98.777 Y2.439 E16.22672
G1 X98.51 Y2.404 E16.23528
G1 X97.874 Y2.29 E16.25184
G1 X97.254 Y2.15 E16.26157
G1 X96.848 Y2.04 E16.2638
G0 F9000 X97.048 Y2.04
G1 F4200 E7.2638
;MESH:NONMESH
G0 F600 X97.048 Y2.04 Z2.381
G0 F9000 X84.964 Y0.2
;TIME_ELAPSED:70.450908
;LAYER:7
;TYPE:WALL-OUTER
;MESH:raftMesh0x19a278bbf98
G1 F4200 E16.2638
G1 F600 X85.022 Y0.2 E16.26573
G1 X85.384 Y0.2 E16.27777
G1 X118.245 Y0.2 E17.37134
G1 X118.246 Y0.2 E17.37138
G1 X118.514 Y0.2 E17.38029
G1 X118.436 Y0.457 E17.38564
G1 X118.292 Y0.933 E17.40219
G1 X85.606 Y0.933 E18.48993
G1 X85.261 Y0.544 E18.50724
G1 X85.022 Y0.273 E18.51477
G1 X84.964 Y0.2 E18.5158
G0 F9000 X85.022 Y0.2
G0 X85.164 Y0.2
G1 F4200 E9.5158
;MESH:Top Left Lid.stl
G0 F9000 X98.804 Y2.44
;TYPE:WALL-INNER
G1 F4200 E18.5158
G1 F1333.3 X99.175 Y2.44 E18.52815
G1 X99.792 Y2.44 E18.54868
G1 X100.414 Y2.44 E18.56938
G1 X101.001 Y2.44 E18.58891
G1 X101.637 Y2.44 E18.61008
G1 X102.221 Y2.44 E18.62951
G1 X102.49 Y2.44 E18.63847
G1 X102.221 Y2.479 E18.63895
G1 X101.637 Y2.533 E18.64222
G1 X101.001 Y2.564 E18.64796
G1 X100.414 Y2.567 E18.65409
G1 X99.792 Y2.541 E18.66
G1 X99.175 Y2.489 E18.6639
G1 X98.804 Y2.44 E18.66474
G1 F4200 E9.66474
G0 F9000 X95.624 Y2.04
;TYPE:WALL-OUTER
G1 F4200 E18.66474
G1 F1000 X96.019 Y2.04 E18.67789
G1 X96.647 Y2.04 E18.69879
G1 X96.852 Y2.04 E18.70561
G1 X104.444 Y2.04 E18.95826
G1 X104.761 Y2.04 E18.96881
G1 X105.372 Y2.04 E18.98914
G1 X105.67 Y2.04 E18.99906
G1 X105.372 Y2.152 E19.00097
G1 X104.761 Y2.353 E19.01272
G1 X104.456 Y2.438 E19.02212
G1 X104.137 Y2.527 E19.03314
G1 X103.52 Y2.67 E19.05422
G1 X102.896 Y2.786 E19.07534
G1 X102.275 Y2.875 E19.09622
G1 X101.656 Y2.933 E19.11691
G1 X101.02 Y2.964 E19.1381
G1 X100.4 Y2.967 E19.15873
G1 X99.764 Y2.941 E19.17991
G1 X99.141 Y2.888 E19.20072
G1 X98.519 Y2.805 E19.2216
G1 X97.884 Y2.692 E19.24307
G1 X97.264 Y2.553 E19.26421
G1 X96.844 Y2.438 E19.2787
G1 X96.647 Y2.385 E19.28503
G1 X96.019 Y2.185 E19.29877
G1 X95.624 Y2.04 E19.30181
G0 F9000 X95.824 Y2.04
G1 F4200 E10.30181
;MESH:NONMESH
G0 F600 X95.824 Y2.04 Z2.664
G0 F9000 X84.646 Y0.2
;TIME_ELAPSED:80.331930
;LAYER:8
;TYPE:WALL-OUTER
;MESH:raftMesh0x19a278bbf98
G1 F4200 E19.30181
G1 F600 X85.058 Y0.2 E19.31552
G1 X85.059 Y0.2 E19.31555
G1 X118.366 Y0.2 E20.42396
G1 X118.367 Y0.2 E20.424
G1 X118.635 Y0.2 E20.43292
G1 X118.557 Y0.457 E20.43826
G1 X118.413 Y0.933 E20.45481
G1 X85.252 Y0.933 E21.55836
G1 X85.022 Y0.674 E21.56989
G1 X84.902 Y0.523 E21.57631
G1 X84.646 Y0.2 E21.58386
G0 F9000 X84.846 Y0.2
G1 F4200 E12.58386
;MESH:Top Left Lid.stl
G0 F9000 X96.903 Y2.44
;TYPE:WALL-INNER
G1 F4200 E21.58386
G1 F1333.3 X97.375 Y2.44 E21.59957
G1 X97.963 Y2.44 E21.61913
G1 X98.584 Y2.44 E21.6398
G1 X98.804 Y2.44 E21.64712
G1 X102.49 Y2.44 E21.76979
G1 X102.837 Y2.44 E21.78133
G1 X103.439 Y2.44 E21.80137
G1 X104.043 Y2.44 E21.82147
G1 X104.395 Y2.44 E21.83318
G1 X104.043 Y2.537 E21.83495
G1 X103.439 Y2.678 E21.84382
G1 X102.837 Y2.791 E21.8589
G1 X102.494 Y2.839 E21.86972
G1 X102.23 Y2.877 E21.87859
G1 X101.628 Y2.934 E21.89872
G1 X101.024 Y2.964 E21.91884
G1 X100.422 Y2.967 E21.93888
G1 X99.8 Y2.942 E21.95959
G1 X99.191 Y2.891 E21.97993
G1 X98.802 Y2.839 E21.99299
G1 X98.584 Y2.811 E22.00004
G1 X97.963 Y2.7 E22.01665
G1 X97.375 Y2.568 E22.02655
G1 X96.903 Y2.44 E22.02952
G1 F4200 E13.02952
G0 F9000 X94.657 Y2.04
;TYPE:WALL-OUTER
G1 F4200 E22.02952
G1 F1000 X94.803 Y2.04 E22.03438
G1 X95.421 Y2.04 E22.05495
G1 X95.632 Y2.04 E22.06197
G1 X105.662 Y2.04 E22.39575
G1 X105.975 Y2.04 E22.40617
G1 X106.584 Y2.04 E22.42644
G1 X106.645 Y2.04 E22.42847
G1 X106.584 Y2.069 E22.42869
G1 X105.975 Y2.327 E22.43816
G1 X105.682 Y2.436 E22.44712
G1 X105.374 Y2.551 E22.45806
G1 X104.759 Y2.755 E22.47962
G1 X104.144 Y2.925 E22.50085
G1 X103.53 Y3.068 E22.52183
G1 X102.901 Y3.186 E22.54313
G1 X102.281 Y3.274 E22.56397
G1 X101.662 Y3.332 E22.58466
G1 X101.026 Y3.364 E22.60585
G1 X100.408 Y3.367 E22.62642
G1 X99.772 Y3.342 E22.6476
G1 X99.149 Y3.289 E22.66841
G1 X98.528 Y3.207 E22.68925
G1 X97.893 Y3.094 E22.71072
G1 X97.274 Y2.955 E22.73183
G1 X96.658 Y2.788 E22.75307
G1 X96.031 Y2.588 E22.77497
G1 X95.619 Y2.437 E22.78957
G1 X95.421 Y2.365 E22.79594
G1 X94.803 Y2.108 E22.80752
G1 X94.657 Y2.04 E22.80833
G0 F9000 X94.803 Y2.04
G0 X94.857 Y2.04
G1 F4200 E13.80833
;MESH:NONMESH
G0 F600 X94.857 Y2.04 Z2.947
G0 F9000 X84.328 Y0.2
;TIME_ELAPSED:90.853739
;LAYER:9
;TYPE:WALL-OUTER
;MESH:raftMesh0x19a278bbf98
G1 F4200 E22.80833
G1 F600 ; Belt wall speed
G1 X84.741 Y0.2 E22.82207
G1 F629 ; Restored speed
G1 F600 ; Belt wall speed
G1 X84.742 Y0.2 E22.82211
G1 F629 ; Restored speed
G1 F600 ; Belt wall speed
G1 X118.488 Y0.2 E23.94513
G1 F629 ; Restored speed
G1 F600 ; Belt wall speed
G1 X118.489 Y0.2 E23.94516
G1 F629 ; Restored speed
G1 F600 ; Belt wall speed
G1 X118.757 Y0.2 E23.95408
G1 F629 ; Restored speed
G1 X118.679 Y0.457 E23.95942
G1 X118.535 Y0.933 E23.97597
G1 X84.911 Y0.933 E25.09493
G1 X84.585 Y0.524 E25.11234
G1 X84.328 Y0.2 E25.1199
G0 F9000 X84.528 Y0.2
G1 F4200 E16.1199
;MESH:Top Left Lid.stl
G0 F9000 X98.835 Y2.84
;TYPE:WALL-INNER
G1 F4200 E25.1199
G1 F1398.9 X99.245 Y2.84 E25.13355
G1 X99.832 Y2.84 E25.15308
G1 X100.443 Y2.84 E25.17341
G1 X101.011 Y2.84 E25.19232
G1 X101.612 Y2.84 E25.21232
G1 X102.186 Y2.84 E25.23142
G1 X102.464 Y2.84 E25.24067
G1 X102.186 Y2.879 E25.24117
G1 X101.612 Y2.934 E25.24441
G1 X101.011 Y2.964 E25.24986
G1 X100.443 Y2.967 E25.25579
G1 X99.832 Y2.942 E25.26162
G1 X99.245 Y2.894 E25.26547
G1 X98.835 Y2.84 E25.26647
G1 F4200 E16.26647
G0 F9000 X95.698 Y2.44
G1 F4200 E25.26647
G1 F1398.9 X96.179 Y2.44 E25.28248
G1 X96.773 Y2.44 E25.30225
G1 X96.904 Y2.44 E25.30661
G1 X104.392 Y2.44 E25.5558
G1 X104.647 Y2.44 E25.56428
G1 X105.237 Y2.44 E25.58392
G1 X105.6 Y2.44 E25.596
G1 X105.237 Y2.576 E25.59869
G1 X104.647 Y2.77 E25.61106
G1 X104.402 Y2.838 E25.61878
G1 X104.053 Y2.936 E25.63085
G1 X103.444 Y3.078 E25.65166
G1 X102.846 Y3.19 E25.6719
G1 X102.236 Y3.276 E25.6924
G1 X101.632 Y3.334 E25.7126
G1 X101.031 Y3.364 E25.73262
G1 X100.429 Y3.367 E25.75266
G1 X99.806 Y3.342 E25.77341
G1 X99.202 Y3.292 E25.79357
G1 X98.593 Y3.212 E25.81402
G1 X97.973 Y3.102 E25.83497
G1 X97.388 Y2.972 E25.85491
G1 X96.899 Y2.839 E25.87178
G1 X96.773 Y2.805 E25.87593
G1 X96.179 Y2.616 E25.8902
G1 X95.698 Y2.44 E25.89456
G1 F4200 E16.89456
G0 F9000 X93.841 Y2.04
;TYPE:WALL-OUTER
G1 F4200 E25.89456
G1 F1049.2 X94.216 Y2.04 E25.90704
G1 X94.678 Y2.04 E25.92241
G1 X106.616 Y2.04 E26.31969
G1 X107.181 Y2.04 E26.33849
G1 X107.455 Y2.04 E26.34761
G1 X107.181 Y2.184 E26.35018
G1 X106.671 Y2.427 E26.3631
G1 X106.577 Y2.472 E26.36657
G1 X105.976 Y2.727 E26.38829
G1 X105.376 Y2.951 E26.40961
G1 X104.767 Y3.152 E26.43095
G1 X104.144 Y3.326 E26.45248
G1 X103.535 Y3.468 E26.47329
G1 X102.906 Y3.585 E26.49458
G1 X102.286 Y3.673 E26.51542
G1 X101.668 Y3.732 E26.53608
G1 X101.033 Y3.764 E26.55724
G1 X100.415 Y3.767 E26.5778
G1 X99.78 Y3.742 E26.59895
G1 X99.158 Y3.69 E26.61972
G1 X98.537 Y3.608 E26.64057
G1 X97.903 Y3.496 E26.66199
G1 X97.283 Y3.358 E26.68313
G1 X96.668 Y3.191 E26.70434
G1 X96.042 Y2.992 E26.7262
G1 X95.427 Y2.767 E26.74799
G1 X94.814 Y2.514 E26.77006
G1 X94.634 Y2.43 E26.77667
G1 X94.216 Y2.234 E26.78817
G1 X93.841 Y2.04 E26.79246
G0 F9000 X94.041 Y2.04
G1 F4200 E17.79246
;MESH:NONMESH
G0 F600 X94.041 Y2.04 Z3.23
G0 F9000 X84.022 Y0.2
;TIME_ELAPSED:102.176795
;LAYER:10
;TYPE:WALL-OUTER
;MESH:raftMesh0x19a278bbf98
G1 F4200 E26.79246
G1 F600 ; Belt wall speed
G1 X84.129 Y0.2 E26.79602
G1 F721 ; Restored speed
G1 F600 ; Belt wall speed
G1 X84.387 Y0.2 E26.8046
G1 F721 ; Restored speed
G1 F600 ; Belt wall speed
G1 X118.61 Y0.2 E27.9435
G1 F721 ; Restored speed
G1 F600 ; Belt wall speed
G1 X118.611 Y0.2 E27.94353
G1 F721 ; Restored speed
G1 F600 ; Belt wall speed
G1 X118.879 Y0.2 E27.95245
G1 F721 ; Restored speed
G1 X118.801 Y0.457 E27.95779
G1 X118.657 Y0.933 E27.97434
G1 X84.592 Y0.933 E29.10798
G1 X84.289 Y0.553 E29.12415
G1 X84.129 Y0.351 E29.13032
G1 X84.022 Y0.2 E29.13296
G0 F9000 X84.129 Y0.2
G0 X84.222 Y0.2
G1 F4200 E20.13296
;MESH:Top Left Lid.stl
G0 F9000 X96.953 Y2.84
;TYPE:WALL-INNER
G1 F4200 E29.13296
G1 F1604.2 X97.494 Y2.84 E29.15096
G1 X98.054 Y2.84 E29.1696
G1 X98.65 Y2.84 E29.18943
G1 X98.839 Y2.84 E29.19572
G1 X102.463 Y2.84 E29.31632
G1 X102.796 Y2.84 E29.3274
G1 X103.357 Y2.84 E29.34607
G1 X103.965 Y2.84 E29.36631
G1 X104.342 Y2.84 E29.37885
G1 X103.965 Y2.945 E29.38086
G1 X103.357 Y3.087 E29.39023
G1 X102.796 Y3.192 E29.40451
G1 X102.467 Y3.239 E29.41491
G1 X102.181 Y3.281 E29.42453
